X:671
T:Haste to the wedding
T:A trip to the Gargle
T:Let brainspinning swains
R:Jig
O:Ireland
B:O'Neill's 987
S:O'Neill's 987 mostly
Z:Transcription:Robert Thorpe ,arrangement, chords:Mike Long
M:6/8
L:1/8
K:D
A|\
"D"AFA Agf|"G"ede fdB|"D"AFA AGF|"A"EFE EFG|\
"D"AFA Agf|"G"ede fdB|"D"A2g "A"faf|"D"ded d2:|
|:a|\
"D"afa afa|"G"bgb bgb|"D"afa agf|"A"efe efg|\
"D"a3 "A"f3|"G"ede fdB|"D"A2g "A"faf|"D"ded d2:|
